X: 1
T: Du r s vacker fr mina gon
R: hambo-polska
M: 3/4
L: a/8
K: Am
|: A, A,>A, | "Am"E2 E>E "E7"c>B | "Am"A2 E>F "Dm"G>F | "G7"D2 D>F A>A | "E7(C)"E3 :|
|: E "Am"A>A | "E7"^G3 B "F"A>A | "Am"E2 C>D E>E | "Dm"D2 C>D "E7"E>E | "Am"A,3 :|
